assets/illustrations/default/accessibility-2.svg

<svg xmlns="http://www.w3.org/2000/svg" width="1080" height="1081" fill="none"><g clip-path="url(#a)"><path fill="#F5F5F5" d="M890 432.514c110.46 0 200-89.543 200-200s-89.54-200-200-200c-110.457 0-200 89.543-200 200s89.543 200 200 200"/><path fill="#C5D9FB" d="M376.5 956.514c204.622 0 370.5-165.879 370.5-370.5 0-204.622-165.878-370.5-370.5-370.5S6 381.392 6 586.014c0 204.621 165.878 370.5 370.5 370.5"/><path fill="#C5D9FB" d="M469.613 614.279h-10.877v415.911h10.877z"/><path fill="#C5D9FB" d="M672.135 816.797H256.219v10.876h415.916z"/><path fill="#C5D9FB" d="M607.097 671.426 313.002 965.521l7.691 7.69 294.094-294.094z"/><path fill="#C5D9FB" d="m320.693 671.427-7.691 7.691 294.094 294.094 7.691-7.691z"/><path fill="#072F73" d="M464.176 1051.95c-126.602 0-229.71-103.111-229.71-229.713s103.108-229.711 229.71-229.711c126.601 0 229.711 103.109 229.711 229.711S590.995 1051.95 464.176 1051.95m0-415.918c-102.674 0-186.204 83.532-186.204 186.205s83.53 186.203 186.204 186.203c102.673 0 186.206-83.529 186.206-186.203 0-102.673-83.533-186.205-186.206-186.205"/><path fill="#072F73" d="m597.03 722.635-65.891 290.625 21.213 4.81 65.891-290.626z"/><path fill="#C5D9FB" d="M1029.53 426.116c10.81 0 19.58-8.765 19.58-19.577s-8.77-19.578-19.58-19.578-19.58 8.765-19.58 19.578 8.77 19.577 19.58 19.577"/><path fill="#C5D9FB" d="M1029.53 386.745H926.205v39.373h103.325z"/><path fill="#0C4EC0" d="M692.145 387.833h305.411l-85.272 343.478H606.875z"/><path fill="url(#b)" d="M685.186 557.938H402.615c-40.461 0-73.308 32.847-73.308 73.307v.653l-53.511 316.07h146.613l42.418-250.811h188.817a73.9 73.9 0 0 0 31.758 7.178c40.461 0 73.308-32.847 73.308-73.308-.217-40.242-33.064-73.089-73.524-73.089"/><path fill="#0C4EC0" d="M912.285 731.31H564.458v-34.152H920.77z"/><path fill="url(#c)" d="M412.403 947.97H298.2c-1.522 6.961-23.274 29.366-50.248 31.106-51.337 3.48-30.673 28.064-30.673 28.064h188.163z"/><path fill="#072F73" d="M522.472 947.97H408.269c-1.523 6.961-23.274 29.366-50.465 31.106-51.337 3.48-30.673 28.064-30.673 28.064h188.163z"/><path fill="#0096FA" d="M387.387 947.968h146.615l51.772-316.07H439.158z"/><path fill="#0096FA" d="M512.467 704.553c40.486 0 73.308-32.821 73.308-73.308 0-40.486-32.822-73.307-73.308-73.307s-73.308 32.821-73.308 73.307 32.821 73.308 73.308 73.308M795.036 697.376c40.486 0 73.305-32.82 73.305-73.307 0-40.486-32.819-73.307-73.305-73.307s-73.308 32.821-73.308 73.307 32.821 73.307 73.308 73.307"/><path fill="#0096FA" d="M795.037 557.938H512.466v139.219h282.571z"/><path fill="#0096FA" d="m867.475 636.032 5.873-90.056H772.197z"/><path fill="#C5D9FB" d="M752.4 614.279h-10.877v415.911H752.4z"/><path fill="#C5D9FB" d="M954.922 816.797H539.006v10.876h415.916z"/><path fill="#C5D9FB" d="M889.861 671.376 595.767 965.47l7.69 7.69 294.094-294.094z"/><path fill="#C5D9FB" d="m603.453 671.332-7.691 7.69 294.094 294.094 7.69-7.691z"/><path fill="#072F73" d="M746.963 1051.95c-126.602 0-229.71-103.111-229.71-229.713s103.108-229.711 229.71-229.711 229.712 103.109 229.712 229.711-103.11 229.713-229.712 229.713m0-415.918c-102.674 0-186.204 83.532-186.204 186.205s83.53 186.203 186.204 186.203c102.673 0 186.206-83.529 186.206-186.203 0-102.673-83.533-186.205-186.206-186.205"/><path fill="#C5D9FB" d="M937.736 569.032H606.875v34.153h330.861z"/><path fill="#0C4EC0" d="M576.637 1007.14H189v34.15h387.637z"/><path fill="url(#d)" d="m809.7 395.514 29.3 161H699z"/><path fill="url(#e)" d="m380.222 511.065 4.666-54.774 35.704 12.498-12.371-11.085 159.961-180.19L655 354.893 522.386 504.327l-27.348 30.756-.108-.109-16.495 18.476c-36.03 40.537-102.771 11.737-98.213-42.385"/><path fill="#35DE90" d="M617.669 256.514H858.26c32.881 0 61.097 23.672 66.74 56.14l-41.767 187.37c-4.015 11.294-31.573 39.613-39.169 54.49H593.5l-42.463-218.622c-7.271-41.481 24.634-79.378 66.632-79.378"/><path fill="url(#f)" d="m493 375.349 11.357 102.165 21.643-140z"/><path fill="url(#g)" d="m809 462.514-25.927-151-161.073 151z"/><path fill="#FCAA73" d="m515.424 504.383 46.033-8.434-59.259-13.991-.388-11.14 57.735 3.987-65.735-31.083 3.638-11.612 70.465 19.621-50.183-34.432 5.545-10.905 90.03 38.016 11.188-27.962 15.913 7.661 2.14 31.981 29.379 12.508-8.649 79.76-92.963-30.582-53.322-2.403z"/><path fill="#35DE90" d="m874.365 559.697 46.974-214.019-128.32-28.165-46.974 214.019z"/><path fill="#35DE90" d="m824.738 472.948-160.636-31.566-36.272 120.856 172.785 33.898z"/><path fill="#0096FA" d="m419.128 298.499 82.929-7.594c3.056-.325 5.238-2.928 4.911-5.857l-13.204-143.622c-.327-2.929-2.946-5.207-5.892-4.881l-82.929 7.593c-3.056.325-5.238 2.929-4.911 5.858l13.204 143.621c.218 2.929 2.946 5.099 5.892 4.882"/><path fill="#0C4EC0" d="m409.949 299.499 82.154-7.593c3.027-.326 5.189-2.929 4.865-5.858l-13.08-143.621c-.324-3.037-2.919-5.206-5.837-4.881l-82.154 7.593c-3.027.326-5.189 2.929-4.865 5.858l13.08 143.62c.216 2.929 2.919 5.099 5.837 4.882"/><path fill="#FCAA73" d="M390.162 326.514 368 229.635l27.892-50.121 56.973.325-.216 11.717-31.892 7.594 53.297 6.292-2.487 10.849-33.729 2.821L476 232.238l-4.324 11.066-30.379-.434 25.514 12.802-3.784 7.377-20.54-3.472-12.865 11.066 22.702 24.192-3.675 27.664"/><path fill="#F06305" d="M610.294 138.921h25.104c3.749 0 6.816-3.067 6.816-6.815v-80.31c0-3.748-3.067-6.815-6.816-6.815h-25.104c-3.748 0-6.815 3.066-6.815 6.815v80.31c0 3.748 3.067 6.815 6.815 6.815M744.561 206.509h25.104c3.748 0 6.815-3.067 6.815-6.815v-64.748c0-3.748-3.067-6.815-6.815-6.815h-25.104c-3.749 0-6.816 3.067-6.816 6.815v64.634c0 3.863 3.067 6.929 6.816 6.929"/><path fill="#FCAA73" d="M632.559 28.85h119.158l9.088 9.087v224.117h-88.034v-35.895h-40.212l-9.087-9.087V37.937z"/><path fill="url(#h)" d="M750.581 172.204h10.224v37.486h-10.224z"/><path fill="url(#i)" d="m703.896 238.656-31.125 23.4v-35.895h31.125z"/><path fill="#F06305" fill-rule="evenodd" d="M659.199 126.696a1.565 1.565 0 0 0-2.06.805l-20.106 45.891a1.565 1.565 0 0 0 1.433 2.192h22.037a1.563 1.563 0 0 0 0-3.128h-19.645l19.146-43.7a1.564 1.564 0 0 0-.805-2.06" clip-rule="evenodd"/><path fill="#FCAA73" d="M771.596 172.205h-24.99v-39.076h33.851v30.215c0 4.885-3.976 8.861-8.861 8.861"/><path fill="#F06305" d="M764.554 18.514H627.789c-3.749 0-6.816 3.067-6.816 6.815v36.123c0 3.748 3.067 6.815 6.816 6.815h136.765c3.748 0 6.815-3.067 6.815-6.815V25.329c0-3.748-3.067-6.815-6.815-6.815"/><path fill="#F06305" d="M756.83 138.921h25.104c3.749 0 6.816-3.067 6.816-6.815V50.319c0-3.748-3.067-6.815-6.816-6.815H756.83c-3.749 0-6.816 3.067-6.816 6.815v81.787c0 3.748 3.067 6.815 6.816 6.815"/><path fill="#F06305" d="M734.111 96.325h25.104c3.749 0 6.816-3.067 6.816-6.816V64.405c0-3.748-3.067-6.815-6.816-6.815h-25.104c-3.748 0-6.815 3.067-6.815 6.815V89.51c0 3.749 3.067 6.816 6.815 6.816M613.249 90.644h15.222c3.748 0 6.815-3.067 6.815-6.815V68.608c0-3.749-3.067-6.816-6.815-6.816h-15.222c-3.748 0-6.815 3.067-6.815 6.816v15.22c0 3.75 3.067 6.816 6.815 6.816"/><path fill="url(#j)" d="m483 374.497 7.576 72.017 35.424-121z"/><path fill="#35DE90" d="M381.189 520.514 493 471.793l-17.277-161.279L360 322.912z"/><circle cx="807" cy="526.514" r="69" fill="#35DE90"/></g><defs><linearGradient id="b" x1="294.492" x2="691.204" y1="613.549" y2="893.492" gradientUnits="userSpaceOnUse"><stop offset=".026" stop-color="#0096FA"/><stop offset=".641" stop-color="#1968F0"/></linearGradient><linearGradient id="c" x1="262.039" x2="391.412" y1="926.626" y2="1051.56" gradientUnits="userSpaceOnUse"><stop offset=".26" stop-color="#072F73"/><stop offset=".366" stop-color="#072C6D"/><stop offset=".513" stop-color="#06255B"/><stop offset=".684" stop-color="#04193D"/><stop offset=".871" stop-color="#010915"/><stop offset=".956"/></linearGradient><linearGradient id="d" x1="731.083" x2="859.479" y1="455.391" y2="565.97" gradientUnits="userSpaceOnUse"><stop offset=".145" stop-color="#F06305"/><stop offset=".311" stop-color="#E15D05"/><stop offset=".631" stop-color="#B94C04"/><stop offset=".942" stop-color="#8C3A03"/></linearGradient><linearGradient id="e" x1="468.027" x2="633.137" y1="406.22" y2="531.088" gradientUnits="userSpaceOnUse"><stop offset=".247" stop-color="#35DE90"/><stop offset=".443" stop-color="#2FD287"/><stop offset=".802" stop-color="#20B16E"/><stop offset=".897" stop-color="#1BA766"/></linearGradient><linearGradient id="f" x1="524.233" x2="464.163" y1="409.232" y2="398.316" gradientUnits="userSpaceOnUse"><stop offset=".247" stop-color="#35DE90"/><stop offset=".443" stop-color="#2FD287"/><stop offset=".802" stop-color="#20B16E"/><stop offset=".897" stop-color="#1BA766"/></linearGradient><linearGradient id="g" x1="689.061" x2="823.001" y1="375.14" y2="490.74" gradientUnits="userSpaceOnUse"><stop offset=".053" stop-color="#35DE90"/><stop offset=".308" stop-color="#2FD287"/><stop offset=".773" stop-color="#20B16E"/><stop offset=".897" stop-color="#1BA766"/></linearGradient><linearGradient id="h" x1="740.526" x2="774.992" y1="197.212" y2="182.96" gradientUnits="userSpaceOnUse"><stop offset=".297" stop-color="#FCAA73"/><stop offset=".43" stop-color="#FCA76F"/><stop offset=".564" stop-color="#FAA063"/><stop offset=".7" stop-color="#F8924E"/><stop offset=".836" stop-color="#F58032"/><stop offset=".971" stop-color="#F1690E"/><stop offset="1" stop-color="#F06305"/></linearGradient><linearGradient id="i" x1="699.527" x2="663.014" y1="254.851" y2="219.813" gradientUnits="userSpaceOnUse"><stop offset=".297" stop-color="#FCAA73"/><stop offset=".43" stop-color="#FCA76F"/><stop offset=".564" stop-color="#FAA063"/><stop offset=".7" stop-color="#F8924E"/><stop offset=".836" stop-color="#F58032"/><stop offset=".971" stop-color="#F1690E"/><stop offset="1" stop-color="#F06305"/></linearGradient><linearGradient id="j" x1="520.615" x2="472.049" y1="388.877" y2="377.753" gradientUnits="userSpaceOnUse"><stop offset=".269" stop-color="#35DE90"/><stop offset=".467" stop-color="#2FD287"/><stop offset=".828" stop-color="#20B16E"/><stop offset=".923" stop-color="#1BA766"/></linearGradient><clipPath id="a"><path fill="#fff" d="M0 .514h1080v1080H0z"/></clipPath></defs></svg>

<svg width="1080" height="1081" viewBox="0 0 1080 1081" fill="none" xmlns="http://www.w3.org/2000/svg">
<g clip-path="url(#clip0_18735_2354)">
<path d="M890 432.514C1000.46 432.514 1090 342.971 1090 232.514C1090 122.057 1000.46 32.5137 890 32.5137C779.543 32.5137 690 122.057 690 232.514C690 342.971 779.543 432.514 890 432.514Z" fill="#F5F5F5"/>
<path d="M376.5 956.514C581.122 956.514 747 790.635 747 586.014C747 381.392 581.122 215.514 376.5 215.514C171.878 215.514 6 381.392 6 586.014C6 790.635 171.878 956.514 376.5 956.514Z" fill="#C5D9FB"/>
<path d="M469.613 614.279H458.736V1030.19H469.613V614.279Z" fill="#C5D9FB"/>
<path d="M672.135 816.797H256.219V827.673H672.135V816.797Z" fill="#C5D9FB"/>
<path d="M607.097 671.426L313.002 965.521L320.693 973.211L614.787 679.117L607.097 671.426Z" fill="#C5D9FB"/>
<path d="M320.693 671.427L313.002 679.118L607.096 973.211L614.787 965.521L320.693 671.427Z" fill="#C5D9FB"/>
<path d="M464.176 1051.95C337.574 1051.95 234.466 948.839 234.466 822.237C234.466 695.635 337.574 592.526 464.176 592.526C590.777 592.526 693.887 695.635 693.887 822.237C693.887 948.839 590.995 1051.95 464.176 1051.95ZM464.176 636.032C361.502 636.032 277.972 719.564 277.972 822.237C277.972 924.911 361.502 1008.44 464.176 1008.44C566.849 1008.44 650.382 924.911 650.382 822.237C650.382 719.564 566.849 636.032 464.176 636.032Z" fill="#072F73"/>
<path d="M597.03 722.635L531.139 1013.26L552.352 1018.07L618.243 727.444L597.03 722.635Z" fill="#072F73"/>
<path d="M1029.53 426.116C1040.34 426.116 1049.11 417.351 1049.11 406.539C1049.11 395.726 1040.34 386.961 1029.53 386.961C1018.72 386.961 1009.95 395.726 1009.95 406.539C1009.95 417.351 1018.72 426.116 1029.53 426.116Z" fill="#C5D9FB"/>
<path d="M1029.53 386.745H926.205V426.118H1029.53V386.745Z" fill="#C5D9FB"/>
<path d="M692.145 387.833H997.556L912.284 731.311H606.875L692.145 387.833Z" fill="#0C4EC0"/>
<path d="M685.186 557.938H402.615C362.154 557.938 329.307 590.785 329.307 631.245C329.307 631.463 329.307 631.681 329.307 631.898L275.796 947.968H422.409L464.827 697.157H653.644C663.215 701.725 674.091 704.335 685.403 704.335C725.863 704.335 758.71 671.488 758.71 631.027C758.493 590.785 725.646 557.938 685.186 557.938Z" fill="url(#paint0_linear_18735_2354)"/>
<path d="M912.285 731.31H564.458V697.158H920.77L912.285 731.31Z" fill="#0C4EC0"/>
<path d="M412.403 947.97H298.2C296.678 954.931 274.926 977.336 247.952 979.076C196.615 982.556 217.279 1007.14 217.279 1007.14H405.442L412.403 947.97Z" fill="url(#paint1_linear_18735_2354)"/>
<path d="M522.472 947.97H408.269C406.746 954.931 384.995 977.336 357.804 979.076C306.467 982.556 327.131 1007.14 327.131 1007.14H515.294L522.472 947.97Z" fill="#072F73"/>
<path d="M387.387 947.968H534.002L585.774 631.898H439.158L387.387 947.968Z" fill="#0096FA"/>
<path d="M512.467 704.553C552.953 704.553 585.775 671.732 585.775 631.245C585.775 590.759 552.953 557.938 512.467 557.938C471.98 557.938 439.159 590.759 439.159 631.245C439.159 671.732 471.98 704.553 512.467 704.553Z" fill="#0096FA"/>
<path d="M795.036 697.376C835.522 697.376 868.341 664.556 868.341 624.069C868.341 583.583 835.522 550.762 795.036 550.762C754.549 550.762 721.728 583.583 721.728 624.069C721.728 664.556 754.549 697.376 795.036 697.376Z" fill="#0096FA"/>
<path d="M795.037 557.938H512.466V697.157H795.037V557.938Z" fill="#0096FA"/>
<path d="M867.475 636.032L873.348 545.976H772.197L867.475 636.032Z" fill="#0096FA"/>
<path d="M752.4 614.279H741.523V1030.19H752.4V614.279Z" fill="#C5D9FB"/>
<path d="M954.922 816.797H539.006V827.673H954.922V816.797Z" fill="#C5D9FB"/>
<path d="M889.861 671.376L595.767 965.47L603.457 973.16L897.551 679.066L889.861 671.376Z" fill="#C5D9FB"/>
<path d="M603.453 671.332L595.762 679.022L889.856 973.116L897.546 965.425L603.453 671.332Z" fill="#C5D9FB"/>
<path d="M746.963 1051.95C620.361 1051.95 517.253 948.839 517.253 822.237C517.253 695.635 620.361 592.526 746.963 592.526C873.565 592.526 976.675 695.635 976.675 822.237C976.675 948.839 873.565 1051.95 746.963 1051.95ZM746.963 636.032C644.289 636.032 560.759 719.564 560.759 822.237C560.759 924.911 644.289 1008.44 746.963 1008.44C849.636 1008.44 933.169 924.911 933.169 822.237C933.169 719.564 849.636 636.032 746.963 636.032Z" fill="#072F73"/>
<path d="M937.736 569.032H606.875V603.185H937.736V569.032Z" fill="#C5D9FB"/>
<path d="M576.637 1007.14H189V1041.29H576.637V1007.14Z" fill="#0C4EC0"/>
<path d="M809.7 395.514L839 556.514H699L809.7 395.514Z" fill="url(#paint2_linear_18735_2354)"/>
<path d="M380.222 511.065L384.888 456.291L420.592 468.789L408.221 457.704L568.182 277.514L655 354.893L522.386 504.327L495.038 535.083L494.93 534.974L478.435 553.45C442.405 593.987 375.664 565.187 380.222 511.065Z" fill="url(#paint3_linear_18735_2354)"/>
<path d="M617.669 256.514H858.26C891.141 256.514 919.357 280.186 925 312.654L883.233 500.024C879.218 511.318 851.66 539.637 844.064 554.514H593.5L551.037 335.892C543.766 294.411 575.671 256.514 617.669 256.514Z" fill="#35DE90"/>
<path d="M493 375.349L504.357 477.514L526 337.514L493 375.349Z" fill="url(#paint4_linear_18735_2354)"/>
<path d="M809 462.514L783.073 311.514L622 462.514H809Z" fill="url(#paint5_linear_18735_2354)"/>
<path d="M515.424 504.383L561.457 495.949L502.198 481.958L501.81 470.818L559.545 474.805L493.81 443.722L497.448 432.11L567.913 451.731L517.73 417.299L523.275 406.394L613.305 444.41L624.493 416.448L640.406 424.109L642.546 456.09L671.925 468.598L663.276 548.358L570.313 517.776L516.991 515.373L515.424 504.383Z" fill="#FCAA73"/>
<path d="M874.365 559.697L921.339 345.678L793.019 317.513L746.045 531.532L874.365 559.697Z" fill="#35DE90"/>
<path d="M824.738 472.948L664.102 441.382L627.83 562.238L800.615 596.136L824.738 472.948Z" fill="#35DE90"/>
<path d="M419.128 298.499L502.057 290.905C505.113 290.58 507.295 287.977 506.968 285.048L493.764 141.426C493.437 138.497 490.818 136.219 487.872 136.545L404.943 144.138C401.887 144.463 399.705 147.067 400.032 149.996L413.236 293.617C413.454 296.546 416.182 298.716 419.128 298.499Z" fill="#0096FA"/>
<path d="M409.949 299.499L492.103 291.905C495.13 291.58 497.292 288.977 496.968 286.048L483.888 142.427C483.564 139.39 480.969 137.221 478.051 137.546L395.897 145.139C392.87 145.465 390.708 148.068 391.032 150.997L404.112 294.617C404.328 297.546 407.031 299.716 409.949 299.499Z" fill="#0C4EC0"/>
<path d="M390.162 326.514L368 229.635L395.892 179.514L452.865 179.839L452.649 191.556L420.757 199.15L474.054 205.442L471.567 216.291L437.838 219.112L476 232.238L471.676 243.304L441.297 242.87L466.811 255.672L463.027 263.049L442.487 259.577L429.622 270.643L452.324 294.835L448.649 322.499" fill="#FCAA73"/>
<path d="M610.294 138.921H635.398C639.147 138.921 642.214 135.854 642.214 132.106V51.796C642.214 48.0475 639.147 44.9805 635.398 44.9805H610.294C606.546 44.9805 603.479 48.0475 603.479 51.796V132.106C603.479 135.854 606.546 138.921 610.294 138.921Z" fill="#F06305"/>
<path d="M744.561 206.509H769.665C773.413 206.509 776.48 203.443 776.48 199.694V134.946C776.48 131.198 773.413 128.131 769.665 128.131H744.561C740.812 128.131 737.745 131.198 737.745 134.946V199.58C737.745 203.443 740.812 206.509 744.561 206.509Z" fill="#F06305"/>
<path d="M632.559 28.8496H751.717L760.805 37.937V262.054H672.771V226.159H632.559C629.038 222.638 626.993 220.593 623.472 217.072V37.937L632.559 28.8496Z" fill="#FCAA73"/>
<path d="M750.581 172.204H760.805V209.69H750.581V172.204Z" fill="url(#paint6_linear_18735_2354)"/>
<path d="M703.896 238.656L672.771 262.056V226.161H703.896V238.656Z" fill="url(#paint7_linear_18735_2354)"/>
<path fill-rule="evenodd" clip-rule="evenodd" d="M659.199 126.696C658.408 126.35 657.486 126.71 657.139 127.501L637.033 173.392C636.821 173.876 636.868 174.434 637.157 174.876C637.446 175.318 637.938 175.584 638.466 175.584H660.503C661.366 175.584 662.066 174.884 662.066 174.02C662.066 173.156 661.366 172.456 660.503 172.456H640.858L660.004 128.756C660.351 127.965 659.99 127.043 659.199 126.696Z" fill="#F06305"/>
<path d="M771.596 172.205H746.606V133.129H780.457V163.344C780.457 168.229 776.481 172.205 771.596 172.205Z" fill="#FCAA73"/>
<path d="M764.554 18.5137H627.789C624.04 18.5137 620.973 21.5807 620.973 25.3292V61.4516C620.973 65.2001 624.04 68.2671 627.789 68.2671H764.554C768.302 68.2671 771.369 65.2001 771.369 61.4516V25.3292C771.369 21.5807 768.302 18.5137 764.554 18.5137Z" fill="#F06305"/>
<path d="M756.83 138.921H781.934C785.683 138.921 788.75 135.854 788.75 132.106V50.3194C788.75 46.5709 785.683 43.5039 781.934 43.5039H756.83C753.081 43.5039 750.014 46.5709 750.014 50.3194V132.106C750.014 135.854 753.081 138.921 756.83 138.921Z" fill="#F06305"/>
<path d="M734.111 96.3248H759.215C762.964 96.3248 766.031 93.2578 766.031 89.5092V64.4054C766.031 60.6568 762.964 57.5898 759.215 57.5898H734.111C730.363 57.5898 727.296 60.6568 727.296 64.4054V89.5092C727.296 93.2578 730.363 96.3248 734.111 96.3248Z" fill="#F06305"/>
<path d="M613.249 90.6444H628.471C632.219 90.6444 635.286 87.5775 635.286 83.8289V68.6075C635.286 64.859 632.219 61.792 628.471 61.792H613.249C609.501 61.792 606.434 64.859 606.434 68.6075V83.8289C606.434 87.5775 609.501 90.6444 613.249 90.6444Z" fill="#F06305"/>
<path d="M483 374.497L490.576 446.514L526 325.514L483 374.497Z" fill="url(#paint8_linear_18735_2354)"/>
<path d="M381.189 520.514L493 471.793L475.723 310.514L360 322.912L381.189 520.514Z" fill="#35DE90"/>
<circle cx="807" cy="526.514" r="69" fill="#35DE90"/>
</g>
<defs>
<linearGradient id="paint0_linear_18735_2354" x1="294.492" y1="613.549" x2="691.204" y2="893.492" gradientUnits="userSpaceOnUse">
<stop offset="0.0262009" stop-color="#0096FA"/>
<stop offset="0.641" stop-color="#1968F0"/>
</linearGradient>
<linearGradient id="paint1_linear_18735_2354" x1="262.039" y1="926.626" x2="391.412" y2="1051.56" gradientUnits="userSpaceOnUse">
<stop offset="0.2603" stop-color="#072F73"/>
<stop offset="0.3664" stop-color="#072C6D"/>
<stop offset="0.5132" stop-color="#06255B"/>
<stop offset="0.6836" stop-color="#04193D"/>
<stop offset="0.8706" stop-color="#010915"/>
<stop offset="0.9558"/>
</linearGradient>
<linearGradient id="paint2_linear_18735_2354" x1="731.083" y1="455.391" x2="859.479" y2="565.97" gradientUnits="userSpaceOnUse">
<stop offset="0.1453" stop-color="#F06305"/>
<stop offset="0.3114" stop-color="#E15D05"/>
<stop offset="0.6314" stop-color="#B94C04"/>
<stop offset="0.9417" stop-color="#8C3A03"/>
</linearGradient>
<linearGradient id="paint3_linear_18735_2354" x1="468.027" y1="406.22" x2="633.137" y2="531.088" gradientUnits="userSpaceOnUse">
<stop offset="0.2466" stop-color="#35DE90"/>
<stop offset="0.4433" stop-color="#2FD287"/>
<stop offset="0.8016" stop-color="#20B16E"/>
<stop offset="0.8967" stop-color="#1BA766"/>
</linearGradient>
<linearGradient id="paint4_linear_18735_2354" x1="524.233" y1="409.232" x2="464.163" y2="398.316" gradientUnits="userSpaceOnUse">
<stop offset="0.2466" stop-color="#35DE90"/>
<stop offset="0.4433" stop-color="#2FD287"/>
<stop offset="0.8016" stop-color="#20B16E"/>
<stop offset="0.8967" stop-color="#1BA766"/>
</linearGradient>
<linearGradient id="paint5_linear_18735_2354" x1="689.061" y1="375.14" x2="823.001" y2="490.74" gradientUnits="userSpaceOnUse">
<stop offset="0.0527476" stop-color="#35DE90"/>
<stop offset="0.3082" stop-color="#2FD287"/>
<stop offset="0.7732" stop-color="#20B16E"/>
<stop offset="0.8967" stop-color="#1BA766"/>
</linearGradient>
<linearGradient id="paint6_linear_18735_2354" x1="740.526" y1="197.212" x2="774.992" y2="182.96" gradientUnits="userSpaceOnUse">
<stop offset="0.2969" stop-color="#FCAA73"/>
<stop offset="0.4297" stop-color="#FCA76F"/>
<stop offset="0.5643" stop-color="#FAA063"/>
<stop offset="0.6998" stop-color="#F8924E"/>
<stop offset="0.8358" stop-color="#F58032"/>
<stop offset="0.9711" stop-color="#F1690E"/>
<stop offset="1" stop-color="#F06305"/>
</linearGradient>
<linearGradient id="paint7_linear_18735_2354" x1="699.527" y1="254.851" x2="663.014" y2="219.813" gradientUnits="userSpaceOnUse">
<stop offset="0.2969" stop-color="#FCAA73"/>
<stop offset="0.4297" stop-color="#FCA76F"/>
<stop offset="0.5643" stop-color="#FAA063"/>
<stop offset="0.6998" stop-color="#F8924E"/>
<stop offset="0.8358" stop-color="#F58032"/>
<stop offset="0.9711" stop-color="#F1690E"/>
<stop offset="1" stop-color="#F06305"/>
</linearGradient>
<linearGradient id="paint8_linear_18735_2354" x1="520.615" y1="388.877" x2="472.049" y2="377.753" gradientUnits="userSpaceOnUse">
<stop offset="0.2693" stop-color="#35DE90"/>
<stop offset="0.4672" stop-color="#2FD287"/>
<stop offset="0.8276" stop-color="#20B16E"/>
<stop offset="0.9233" stop-color="#1BA766"/>
</linearGradient>
<clipPath id="clip0_18735_2354">
<rect width="1080" height="1080" fill="white" transform="translate(0 0.513672)"/>
</clipPath>
</defs>
</svg>
